.gitbook/assets/Sign Sign-ON.svg

<svg xmlns="http://www.w3.org/2000/svg" width="404" height="251" fill="none" viewBox="0 0 404 251"><path fill="#FC6469" d="M0 0h404v251H0z"/><g opacity=".92"><path fill="#360103" fill-rule="evenodd" d="M236.5 110.667h-59.8a6.9 6.9 0 0 0-6.9 6.9v31.138a6.9 6.9 0 0 0 6.9 6.9h59.8a6.9 6.9 0 0 0 6.9-6.9v-31.138a6.9 6.9 0 0 0-6.9-6.9Zm-59.8-4.6c-6.352 0-11.5 5.149-11.5 11.5v31.138c0 6.352 5.148 11.5 11.5 11.5h59.8c6.351 0 11.5-5.148 11.5-11.5v-31.138c0-6.351-5.149-11.5-11.5-11.5h-59.8Z" clip-rule="evenodd"/><path fill="#FF999C" d="M156 103.767c0-6.352 5.149-11.5 11.5-11.5h59.8c6.351 0 11.5 5.148 11.5 11.5v31.138c0 6.351-5.149 11.5-11.5 11.5h-59.8c-6.351 0-11.5-5.149-11.5-11.5v-31.138Z"/><path fill="#360103" fill-rule="evenodd" d="M227.3 96.867h-59.8a6.9 6.9 0 0 0-6.9 6.9v31.138a6.9 6.9 0 0 0 6.9 6.9h59.8a6.9 6.9 0 0 0 6.9-6.9v-31.138a6.9 6.9 0 0 0-6.9-6.9Zm-59.8-4.6c-6.351 0-11.5 5.148-11.5 11.5v31.138c0 6.351 5.149 11.5 11.5 11.5h59.8c6.351 0 11.5-5.149 11.5-11.5v-31.138c0-6.352-5.149-11.5-11.5-11.5h-59.8Z" clip-rule="evenodd"/><path fill="#360103" fill-rule="evenodd" d="M182.274 113.143a1.769 1.769 0 1 0 0-3.538 1.769 1.769 0 0 0 0 3.538Zm0 4.6a6.369 6.369 0 0 0 0-12.738 6.37 6.37 0 1 0 0 12.738Zm-9.618 11.262h19.026c-.313-.898-.957-1.873-2.009-2.802-1.792-1.583-4.503-2.749-7.638-2.749-5.114 0-8.31 2.54-9.379 5.551Zm-5 2.3c0-6.933 5.984-12.451 14.379-12.451 4.256 0 8.05 1.575 10.683 3.901 2.579 2.278 4.333 5.584 3.652 9l-.368 1.85h-28.346v-2.3Zm59.998-19.223h-27.07v-4.6h27.07v4.6Zm0 7.785h-27.07v-4.6h27.07v4.6Z" clip-rule="evenodd"/></g></svg>

<svg width="404" height="251" viewBox="0 0 404 251" fill="none" xmlns="http://www.w3.org/2000/svg">
<rect width="404" height="251" fill="#FC6469"/>
<g opacity="0.92">
<path fill-rule="evenodd" clip-rule="evenodd" d="M236.5 110.667H176.7C172.889 110.667 169.8 113.756 169.8 117.567V148.705C169.8 152.516 172.889 155.605 176.7 155.605H236.5C240.311 155.605 243.4 152.516 243.4 148.705V117.567C243.4 113.756 240.311 110.667 236.5 110.667ZM176.7 106.067C170.348 106.067 165.2 111.216 165.2 117.567V148.705C165.2 155.057 170.348 160.205 176.7 160.205H236.5C242.851 160.205 248 155.057 248 148.705V117.567C248 111.216 242.851 106.067 236.5 106.067H176.7Z" fill="#360103"/>
<path d="M156 103.767C156 97.4153 161.149 92.2666 167.5 92.2666H227.3C233.651 92.2666 238.8 97.4153 238.8 103.767V134.905C238.8 141.256 233.651 146.405 227.3 146.405H167.5C161.149 146.405 156 141.256 156 134.905V103.767Z" fill="#FF999C"/>
<path fill-rule="evenodd" clip-rule="evenodd" d="M227.3 96.8666H167.5C163.689 96.8666 160.6 99.9558 160.6 103.767V134.905C160.6 138.716 163.689 141.805 167.5 141.805H227.3C231.111 141.805 234.2 138.716 234.2 134.905V103.767C234.2 99.9558 231.111 96.8666 227.3 96.8666ZM167.5 92.2666C161.149 92.2666 156 97.4153 156 103.767V134.905C156 141.256 161.149 146.405 167.5 146.405H227.3C233.651 146.405 238.8 141.256 238.8 134.905V103.767C238.8 97.4153 233.651 92.2666 227.3 92.2666H167.5Z" fill="#360103"/>
<path fill-rule="evenodd" clip-rule="evenodd" d="M182.274 113.143C183.251 113.143 184.043 112.351 184.043 111.374C184.043 110.397 183.251 109.605 182.274 109.605C181.296 109.605 180.504 110.397 180.504 111.374C180.504 112.351 181.296 113.143 182.274 113.143ZM182.274 117.743C185.791 117.743 188.643 114.892 188.643 111.374C188.643 107.856 185.791 105.005 182.274 105.005C178.756 105.005 175.904 107.856 175.904 111.374C175.904 114.892 178.756 117.743 182.274 117.743Z" fill="#360103"/>
<path fill-rule="evenodd" clip-rule="evenodd" d="M172.656 129.005H191.682C191.369 128.107 190.725 127.132 189.673 126.203C187.881 124.62 185.17 123.454 182.035 123.454C176.921 123.454 173.725 125.994 172.656 129.005ZM167.656 131.305C167.656 124.372 173.64 118.854 182.035 118.854C186.291 118.854 190.085 120.429 192.718 122.755C195.297 125.033 197.051 128.339 196.37 131.755L196.002 133.605H167.656V131.305Z" fill="#360103"/>
<path fill-rule="evenodd" clip-rule="evenodd" d="M227.654 112.082H200.584V107.482H227.654V112.082Z" fill="#360103"/>
<path fill-rule="evenodd" clip-rule="evenodd" d="M227.654 119.867H200.584V115.267H227.654V119.867Z" fill="#360103"/>
</g>
</svg>
